web/themes/custom/oh_my_pasta/images/icons/flag-en.svg

<svg width="26" height="26" viewBox="0 0 26 26" fill="none" xmlns="http://www.w3.org/2000/svg">
<mask id="mask0_2885_36619" style="mask-type:alpha" maskUnits="userSpaceOnUse" x="1" y="1" width="24" height="24">
<circle cx="13" cy="13" r="11.5" fill="#D9D9D9" stroke="black"/>
</mask>
<g mask="url(#mask0_2885_36619)">
<path d="M9.84408 1H1.00195V2.87284L9.84408 8.66594V1Z" fill="#0052B4"/>
<path d="M1.00195 7.40308V9.84217H4.72472L1.00195 7.40308Z" fill="#0052B4"/>
<path d="M1.00195 16.1582V18.5973L4.72472 16.1582H1.00195Z" fill="#0052B4"/>
<path d="M25.0013 2.87284V1H16.1592V8.66594L25.0013 2.87284Z" fill="#0052B4"/>
<path d="M25.0021 18.5973V16.1582H21.2793L25.0021 18.5973Z" fill="#0052B4"/>
<path d="M16.1592 17.334V24.9999H25.0013V23.1271L16.1592 17.334Z" fill="#0052B4"/>
<path d="M25.0021 9.84217V7.40308L21.2793 9.84217H25.0021Z" fill="#0052B4"/>
<path d="M1.00195 23.1271V24.9999H9.84408V17.334L1.00195 23.1271Z" fill="#0052B4"/>
<path d="M25.0017 23.127V21.2553L17.1485 16.1577H19.4687L25.0017 19.7493V18.5968L21.279 16.1577H25.0017V14.8945H14.8965V24.9998H16.1596V17.3339L25.0017 23.127Z" fill="#F5F5F5"/>
<path d="M1.00195 14.8945V16.1577H4.72472L1.00195 18.5968V20.3687L7.48922 16.1577H9.80934L1.00195 21.8747V23.127L9.84408 17.3339V24.9998H11.1072V14.8945H1.00195Z" fill="#F5F5F5"/>
<path d="M11.1072 1H9.84408V8.66594L1.00195 2.87284V4.92245L8.58089 9.84213H6.26077L1.00195 6.42845V7.40303L4.72472 9.84213H1.00195V11.1053H11.1072V1Z" fill="#F5F5F5"/>
<path d="M25.0017 11.1053V9.84213H21.279L25.0017 7.40303V5.60847L18.4798 9.84213H16.1596L25.0017 4.10242V2.87284L16.1596 8.66594V1H14.8965V11.1053H25.0017Z" fill="#F5F5F5"/>
<path d="M25.002 14.8947V11.1053H14.8967V1H11.1072V11.1053H1.00195V14.8947H11.1072V25H14.8967V14.8947H25.002Z" fill="#D80027"/>
<path d="M7.48922 16.1582L1.00195 20.3692V21.8752L9.80934 16.1582H7.48922Z" fill="#D80027"/>
<path d="M17.1494 16.1582L25.0026 21.2558V19.7498L19.4695 16.1582H17.1494Z" fill="#D80027"/>
<path d="M8.58089 9.84204L1.00195 4.92236V6.42836L6.26077 9.84204H8.58089Z" fill="#D80027"/>
<path d="M18.4793 9.842L25.0013 5.60834V4.10229L16.1592 9.842H18.4793Z" fill="#D80027"/>
</g>
<circle cx="13" cy="13" r="12" stroke="#808080"/>
</svg>

<svg width="26" height="26" fill="none" xmlns="http://www.w3.org/2000/svg"><mask id="a" style="mask-type:alpha" maskUnits="userSpaceOnUse" x="1" y="1" width="24" height="24"><circle cx="13" cy="13" r="11.5" fill="#D9D9D9" stroke="#000"/></mask><g mask="url(#a)"><path d="M9.844 1H1.002v1.873l8.842 5.793V1zM1.002 7.403v2.44h3.723l-3.723-2.44zm0 8.755v2.44l3.723-2.44H1.002zM25.001 2.873V1H16.16v7.666l8.842-5.793zm.001 15.724v-2.439H21.28l3.723 2.44zm-8.842-1.263V25H25v-1.873l-8.842-5.793zm8.842-7.492V7.403l-3.723 2.44h3.723zm-24 13.285V25h8.842v-7.666l-8.842 5.793z" fill="#0052B4"/><path d="M25.002 23.127v-1.872l-7.854-5.097h2.32l5.534 3.591v-1.152l-3.723-2.44h3.723v-1.262H14.897V25h1.263v-7.666l8.842 5.793zm-24-8.232v1.263h3.723l-3.723 2.439v1.772l6.487-4.211h2.32l-8.807 5.717v1.252l8.842-5.793V25h1.263V14.895H1.002zM11.107 1H9.844v7.666L1.002 2.873v2.05l7.579 4.92H6.26L1 6.427v.975l3.724 2.44H1.002v1.262h10.105V1zm13.895 10.105V9.842h-3.723l3.723-2.439V5.608L18.48 9.842h-2.32l8.842-5.74v-1.23L16.16 8.667V1h-1.264v10.105h10.106z" fill="#F5F5F5"/><path d="M25.002 14.895v-3.79H14.897V1h-3.79v10.105H1.002v3.79h10.105V25h3.79V14.895h10.105z" fill="#D80027"/><path d="M7.49 16.158L1.001 20.37v1.506l8.807-5.717H7.49zm9.66 0l7.853 5.098V19.75l-5.534-3.592h-2.32zM8.58 9.842l-7.578-4.92v1.506l5.259 3.414h2.32zm9.9 0L25 5.608V4.102l-8.842 5.74h2.32z" fill="#D80027"/></g><circle cx="13" cy="13" r="12" stroke="gray"/></svg>
